X:1013
T:Imelda Roland's
R:reel
C:Imelda Roland (East Galway)
Z:id:hn-reel-1013
M:C|
L:1/8
K:Edor
B2GA BGdB | AD (3FED ADFD | GFEF ~G3A | BABd egfe |
d2ce dBAG | FDAD BDAD | GFEF GFGA | (3Bcd A=c BEE2 :|
|: ~e3d efga | be~e2 bege | d2dc defg | ad (3fed adfd |
e2ef edBc | dedB AFDF | GFEF ~G3A | (3Bcd A=c BEE2 :|
P:variations
|: B2GA BGdB | AD~D2 ADFA | GBEF GFGA | BA (3Bcd egfe |
d2dc dBAG | (3FED AD BDAD | GBEF ~G3B | dBA=c BEE2 :|
|: Beed efga | be~e2 bege | d2dc defg | ad (3fed adfd |
egfg edBc | d2cd AFDF | GBEF ~G3B | dBA=c BEE2 :|

